domfk/img/card-link/card-3-link-bg.svg

<svg width="353" height="265" viewBox="0 0 353 265" fill="none" xmlns="http://www.w3.org/2000/svg">
<g opacity="0.2">
<path d="M29.7299 222.942L27.0459 224.635L25.3529 221.951L11.9332 230.416L13.6262 233.1L10.9422 234.793C9.46605 235.724 9.02011 237.694 9.95124 239.17L10.7977 240.512C12.9563 243.934 17.2935 245.1 20.8706 243.425C22.9858 244.905 25.754 245.279 28.2207 244.342L30.8448 248.502L25.4769 251.888L27.1699 254.572L40.5896 246.107L38.8967 243.423L33.5288 246.809L30.9047 242.649C32.8128 240.826 33.6679 238.167 33.2436 235.621C36.2959 233.114 37.1118 228.697 34.9533 225.275L34.1068 223.933C33.1756 222.457 31.206 222.011 29.7299 222.942ZM13.4817 238.819L12.6352 237.477L15.3191 235.784L18.5527 240.91C16.6405 241.329 14.5821 240.564 13.4817 238.819ZM27.9544 240.945C25.7401 242.342 22.7857 241.673 21.389 239.459L16.3101 231.407L24.362 226.328L29.4409 234.38C30.8376 236.594 30.1686 239.549 27.9544 240.945ZM32.2693 226.968C33.3697 228.713 33.1736 230.9 31.9724 232.446L28.7389 227.319L31.4228 225.626L32.2693 226.968Z" fill="black"/>
</g>
<g opacity="0.4">
<path d="M343.325 242.959C343.697 242.959 343.999 242.657 343.999 242.285V240.982C343.999 239.665 342.993 238.593 341.757 238.593H340.666V237.212C340.666 236.246 339.88 235.46 338.914 235.46H333.49C332.524 235.46 331.738 236.246 331.738 237.212V240.808C326.893 240.243 320.862 240.242 316.009 240.808V237.212C316.009 236.246 315.223 235.46 314.257 235.46H313.829C317.523 233.211 321.654 230.161 324.874 227.19L326.989 230.098C327.559 230.88 328.657 231.051 329.437 230.484L333.823 227.294C333.823 227.294 333.823 227.294 333.823 227.294C334.604 226.725 334.778 225.627 334.209 224.846L333.397 223.73L334.279 223.088C335.279 222.361 335.462 220.903 334.687 219.837L331.03 214.809C330.255 213.744 328.811 213.469 327.811 214.196L326.929 214.837L326.117 213.721C325.549 212.939 324.451 212.766 323.67 213.334L319.283 216.525C318.502 217.093 318.329 218.191 318.897 218.972L321.012 221.88C316.76 224.273 311.884 227.82 308.292 231.132L306.736 228.993C305.86 227.789 304.165 227.521 302.961 228.398L300.112 230.469C298.907 231.346 298.64 233.04 299.516 234.245L299.769 234.593L298.887 235.234C297.867 235.976 297.72 237.441 298.479 238.485L302.137 243.513C302.537 244.063 303.123 244.413 303.749 244.506V247.2C303.749 248.517 304.755 249.589 305.991 249.589H307.082V250.969C307.082 251.935 307.868 252.721 308.834 252.721H314.257C315.223 252.721 316.009 251.935 316.009 250.969V247.374C317.924 247.597 320.077 247.737 322.288 247.782C322.293 247.782 322.297 247.782 322.302 247.782C322.668 247.782 322.968 247.489 322.975 247.121C322.983 246.749 322.687 246.442 322.315 246.434C320.086 246.389 317.92 246.246 316.009 246.017V242.164C320.776 241.593 326.873 241.581 331.738 242.164V246.017C329.828 246.246 327.662 246.389 325.433 246.434C325.061 246.442 324.765 246.749 324.772 247.121C324.78 247.489 325.08 247.782 325.446 247.782C325.45 247.782 325.455 247.782 325.46 247.782C327.671 247.737 329.824 247.597 331.738 247.374V250.969C331.738 251.935 332.524 252.721 333.49 252.721H338.914C339.88 252.721 340.666 251.935 340.666 250.969V249.589H341.757C342.993 249.589 343.999 248.517 343.999 247.2V245.43C343.999 245.058 343.697 244.756 343.325 244.756C342.953 244.756 342.651 245.058 342.651 245.43V247.2C342.651 247.764 342.242 248.241 341.757 248.241H340.666V239.941H341.757C342.242 239.941 342.651 240.418 342.651 240.982V242.285C342.651 242.657 342.953 242.959 343.325 242.959ZM328.604 215.286C328.996 215.001 329.608 215.145 329.94 215.602L333.597 220.63C333.929 221.086 333.878 221.713 333.486 221.998L332.604 222.64C332.058 221.889 328.277 216.69 327.722 215.927L328.604 215.286ZM319.987 218.18C319.858 218.002 319.899 217.744 320.076 217.615L324.462 214.424C324.64 214.295 324.899 214.337 325.027 214.514C325.3 214.889 331.585 223.53 331.911 223.978C331.911 223.978 331.911 223.978 331.911 223.978L333.119 225.639C333.248 225.816 333.207 226.075 333.03 226.204L328.644 229.394C328.466 229.523 328.21 229.484 328.079 229.305C327.813 228.939 320.308 218.621 319.987 218.18ZM321.81 222.977L324.077 226.093C320.571 229.347 315.654 232.944 311.356 235.345L309.09 232.229C312.586 228.984 317.507 225.381 321.81 222.977ZM303.749 240.982V243.121C303.548 243.046 303.363 242.908 303.227 242.72L299.569 237.692C299.222 237.215 299.3 236.601 299.68 236.324L300.562 235.683C300.669 235.83 301.506 236.98 303.865 240.224C303.785 240.479 303.749 240.743 303.749 240.982ZM307.082 248.241H305.991C305.506 248.241 305.097 247.764 305.097 247.2C305.097 246.591 305.097 241.616 305.097 240.982C305.097 240.746 305.174 240.492 305.328 240.293C305.511 240.054 305.759 239.94 305.991 239.94H307.081V248.241H307.082ZM307.082 237.212V238.593H305.991C305.936 238.593 305.882 238.596 305.828 238.6C305.819 238.6 305.809 238.601 305.8 238.602C305.383 238.64 304.998 238.8 304.677 239.048L300.606 233.452C300.167 232.848 300.301 231.999 300.905 231.559L303.753 229.487C304.355 229.05 305.208 229.184 305.646 229.786C306.137 230.461 309.248 234.738 309.773 235.46H308.833C307.868 235.46 307.082 236.246 307.082 237.212ZM314.662 250.969C314.662 251.188 314.476 251.374 314.257 251.374H308.834C308.614 251.374 308.429 251.188 308.429 250.969C308.429 250.335 308.429 237.626 308.429 237.212C308.429 236.993 308.614 236.808 308.834 236.808C310.205 236.808 310.962 236.808 311.356 236.808C311.64 236.808 311.736 236.808 311.737 236.808C312.131 236.808 312.887 236.808 314.257 236.808C314.476 236.808 314.662 236.993 314.662 237.212C314.662 238.046 314.662 250.457 314.662 250.969ZM339.319 250.969C339.319 251.188 339.133 251.374 338.914 251.374H333.491C333.271 251.374 333.086 251.188 333.086 250.969V237.212C333.086 236.993 333.271 236.808 333.491 236.808H338.914C339.133 236.808 339.319 236.993 339.319 237.212C339.319 238.042 339.319 250.524 339.319 250.969Z" fill="black"/>
</g>
<g opacity="0.4">
<path d="M342.746 24.327L342.492 24.2172C338.933 22.7265 334.898 23.3745 331.965 25.8075C331.134 24.9165 330.134 24.1887 328.977 23.7043C327.067 22.9041 324.985 22.8326 323.066 23.423C323.564 22.1575 323.924 20.8402 324.229 19.664C324.49 18.6582 324.745 17.683 325.057 16.913L328.748 18.4597C329.332 18.7046 329.978 18.707 330.565 18.4668L334.708 16.7701C335.892 16.2851 336.458 14.9489 336.021 13.7575C336.474 13.457 336.816 13.013 336.979 12.4816C337.188 11.7993 337.082 11.0662 336.687 10.4715L335.41 8.54792C334.793 7.61826 333.922 6.89828 332.892 6.46676C330.745 5.56729 328.376 5.55806 326.222 6.44035C322.254 8.06528 318.712 10.3456 315.692 13.2176C312.054 16.6776 309.8 19.4103 308.992 21.3385C308.529 22.4435 308.057 23.3009 307.59 23.8876C306.59 25.1407 306.59 26.9238 307.588 28.2235C311.587 33.4299 316.901 37.523 322.956 40.0595L324.012 40.5018C327.765 42.0741 331.726 43.0259 335.783 43.3307L336.366 43.3737C338.747 43.5532 340.968 42.1933 341.89 39.9906L345.458 31.4741C346.61 28.7252 345.393 25.5189 342.746 24.327ZM340.43 39.3789C339.771 40.9522 338.185 41.9235 336.483 41.7955L335.901 41.7525C332.014 41.4601 328.22 40.5484 324.624 39.0419L323.568 38.5996C317.767 36.1694 312.675 32.248 308.843 27.2594C308.289 26.5379 308.283 25.5573 308.827 24.8743C309.386 24.1741 309.932 23.1897 310.452 21.95C311.164 20.2492 313.353 17.6266 316.783 14.3651C319.659 11.6282 323.037 9.45495 326.822 7.90492C328.585 7.18293 330.523 7.19052 332.28 7.92664C333.021 8.23692 333.647 8.75475 334.091 9.42337L335.368 11.3469C335.5 11.5456 335.535 11.7898 335.465 12.017C335.396 12.2451 335.229 12.4267 335.009 12.5173L331.701 13.8722C331.347 14.0172 330.941 13.9194 330.692 13.6299C330.504 13.411 330.435 13.1247 330.502 12.8438C330.569 12.5629 330.761 12.339 331.028 12.2297L331.98 11.8399C332.385 11.6742 332.578 11.2122 332.412 10.8077C332.247 10.403 331.785 10.2095 331.38 10.3753L330.428 10.7651C329.685 11.0695 329.15 11.6926 328.962 12.4745C328.775 13.2558 328.968 14.0531 329.492 14.6623C330.186 15.4674 331.315 15.7412 332.301 15.3369L334.566 14.4091C334.645 14.776 334.467 15.1584 334.108 15.3055L329.965 17.0022C329.772 17.0813 329.551 17.0802 329.359 16.9998L325.951 15.5714C326.028 15.5148 326.105 15.4553 326.19 15.4207C326.594 15.2549 326.788 14.793 326.622 14.3885C326.456 13.9838 325.994 13.7903 325.59 13.9561C323.896 14.6499 323.34 16.7896 322.697 19.2669C322.363 20.553 322.018 21.8833 321.49 23.1421C320.231 26.149 317.687 25.8359 317.579 25.8209C317.149 25.759 316.749 26.0546 316.684 26.4848C316.627 26.8516 316.832 27.1971 317.159 27.3342C317.217 27.3587 317.28 27.3766 317.346 27.3864C318.311 27.5342 320.095 27.2955 321.536 25.8766C321.551 25.8675 321.57 25.8693 321.585 25.859C323.591 24.4856 326.126 24.226 328.366 25.1643C330.109 25.8947 331.469 27.2585 332.193 29.0048C332.36 29.4086 332.824 29.601 333.227 29.4329C333.63 29.2652 333.822 28.8027 333.655 28.3989C333.457 27.9226 333.208 27.4788 332.937 27.0524C335.422 24.9695 338.854 24.4098 341.88 25.6772L342.095 25.7705C343.967 26.6136 344.821 28.8978 343.998 30.8624L340.43 39.3789L340.43 39.3789Z" fill="black"/>
</g>
<g opacity="0.4">
<path d="M42.126 18.3267L40.0128 16.2135L42.126 14.1003C42.515 13.7112 42.515 13.0805 42.126 12.6914L39.3084 9.8739C38.9197 9.48516 38.2886 9.48496 37.8996 9.8739L35.7863 11.9871L33.6731 9.8739C32.5079 8.70867 30.6119 8.70873 29.4467 9.8739L28.6224 10.6982C27.5184 10.1697 26.1454 10.3577 25.2204 11.2827L23.8115 12.6915C23.4228 13.0801 23.4224 13.7113 23.8115 14.1003L28.7424 19.0311L19.0311 28.7425L14.1003 23.8116C13.7115 23.4229 13.0804 23.4227 12.6915 23.8116L11.2827 25.2204C10.3644 26.1386 10.1704 27.5106 10.6995 28.6212L9.87392 29.4468C8.70869 30.612 8.70869 32.508 9.87392 33.6732L11.9872 35.7864L9.87392 37.8997C9.48485 38.2887 9.48485 38.9194 9.87392 39.3085L12.6915 42.1261C13.0802 42.5149 13.7113 42.5151 14.1003 42.1261L16.2135 40.0129L18.3268 42.1262C19.492 43.2913 21.388 43.2913 22.5532 42.1262L23.3775 41.3019C24.4816 41.8304 25.8546 41.6424 26.7796 40.7174L28.1885 39.3086C28.5772 38.9198 28.5775 38.2888 28.1885 37.8998L23.2576 32.9689L32.9689 23.2577L37.8997 28.1885C38.2884 28.5773 38.9196 28.5775 39.3085 28.1885L40.7173 26.7797C41.6357 25.8614 41.8296 24.4895 41.3006 23.3789L42.1261 22.5533C43.2912 21.3879 43.2912 19.492 42.126 18.3267ZM38.6041 11.9871L40.0129 13.3959L38.6041 14.8048L37.1952 13.396L38.6041 11.9871ZM13.3959 40.0128L11.9871 38.604L13.3959 37.1952L14.8047 38.604L13.3959 40.0128ZM21.1443 40.7172C20.756 41.1057 20.124 41.1056 19.7356 40.7172L11.2827 32.2644C10.8943 31.8761 10.8943 31.244 11.2827 30.8556L11.9871 30.1512L21.8487 40.0128L21.1443 40.7172ZM26.0752 38.6041L25.3707 39.3084C24.9813 39.6978 24.3513 39.6978 23.9619 39.3084L12.6915 28.038C12.3022 27.6487 12.3022 27.0186 12.6915 26.6292L13.3959 25.9249C13.8344 26.3634 25.8543 38.3832 26.0752 38.6041ZM21.8487 31.56L20.4399 30.1512L30.1512 20.4399L31.56 21.8487L21.8487 31.56ZM39.3084 25.3708L38.604 26.0751L30.8557 18.3269L30.8556 18.3268L30.8555 18.3267L25.9248 13.3961L26.6292 12.6916C27.0185 12.3024 27.6486 12.3022 28.038 12.6916L39.3085 23.9621C39.6978 24.3513 39.6978 24.9814 39.3084 25.3708ZM40.7172 21.1444L40.0128 21.8487L30.1512 11.9871L30.8556 11.2828C31.2441 10.8944 31.8759 10.8944 32.2644 11.2828L40.7172 19.7355C41.1057 20.124 41.1057 20.756 40.7172 21.1444Z" fill="black"/>
</g>
<g opacity="0.4">
<path d="M55.7489 37.5779L54.5867 38.0453L54.1193 36.8831C54.0333 36.6692 53.7901 36.5655 53.5761 36.6515L52.0266 37.2747C51.8129 37.3607 51.709 37.604 51.795 37.8179L52.2624 38.9801L51.1003 39.4475C50.4595 39.7052 50.1478 40.4362 50.4055 41.077L50.5879 41.5303C50.2026 41.8692 50.0494 42.4294 50.254 42.9381L50.5656 43.7129C50.6515 43.9267 50.8948 44.0306 51.1088 43.9445L53.8204 42.8539L55.9684 48.1946L53.2567 49.2852C53.043 49.3712 52.9391 49.6145 53.0252 49.8284L53.3367 50.6031C53.5398 51.1081 54.0369 51.4084 54.5521 51.387L54.7347 51.841C54.9924 52.4818 55.7235 52.7935 56.3643 52.5358L57.5264 52.0684L57.9939 53.2305C58.0799 53.4445 58.3231 53.5482 58.537 53.4621L60.0866 52.8389C60.3003 52.753 60.4042 52.5097 60.3181 52.2958L59.8507 51.1336L61.0129 50.6662C61.6537 50.4084 61.9654 49.6774 61.7077 49.0366L61.5254 48.5833C61.9106 48.2445 62.0638 47.6842 61.8592 47.1755L61.5477 46.4007C61.4617 46.1869 61.2184 46.0831 61.0045 46.1691L58.2928 47.2597L56.1448 41.9191L58.8565 40.8285C59.0703 40.7425 59.1741 40.4992 59.0881 40.2853L58.7765 39.5105C58.5734 39.0055 58.0763 38.7052 57.5611 38.7266L57.3785 38.2726C57.1207 37.6318 56.3897 37.3201 55.7489 37.5779ZM52.7256 37.8937L53.5004 37.5821L53.812 38.3568L53.0373 38.6685L52.7256 37.8937ZM59.3875 52.22L58.6128 52.5316L58.3012 51.7568L59.0759 51.4452L59.3875 52.22ZM60.9328 49.3482C61.0188 49.5618 60.9149 49.8055 60.7013 49.8914L56.0527 51.761C55.8391 51.8469 55.5954 51.743 55.5095 51.5294L55.3537 51.1421L60.777 48.9608L60.9328 49.3482ZM60.9287 47.0997L61.0844 47.4871C61.1705 47.7013 61.067 47.9442 60.8528 48.0303L54.6547 50.5231C54.4406 50.6092 54.1977 50.5056 54.1115 50.2915L53.9557 49.9041C54.1969 49.8072 60.8072 47.1486 60.9287 47.0997ZM57.518 47.5714L56.7432 47.883L54.5952 42.5423L55.37 42.2307L57.518 47.5714ZM58.0017 39.8221L58.1575 40.2095L53.8963 41.9233L53.8963 41.9233L53.8962 41.9233L51.1846 43.0139L51.0288 42.6266C50.9427 42.4125 51.0462 42.1695 51.2604 42.0834L57.4585 39.5906C57.6726 39.5044 57.9156 39.608 58.0017 39.8221ZM56.6037 38.5842L56.7595 38.9716L51.3361 41.1528L51.1804 40.7654C51.0945 40.5518 51.1983 40.3082 51.4119 40.2222L56.0605 38.3526C56.2741 38.2667 56.5178 38.3706 56.6037 38.5842Z" fill="black"/>
</g>
</svg>

<svg width="353" height="265" fill="none" xmlns="http://www.w3.org/2000/svg"><path d="M29.73 222.942l-2.684 1.693-1.693-2.684-13.42 8.465 1.693 2.684-2.684 1.693a3.183 3.183 0 00-.99 4.377l.846 1.342c2.158 3.422 6.496 4.588 10.073 2.913a7.947 7.947 0 007.35.917l2.624 4.16-5.368 3.386 1.693 2.684 13.42-8.465-1.693-2.684-5.368 3.386-2.624-4.16a7.948 7.948 0 002.339-7.028c3.052-2.507 3.868-6.924 1.71-10.346l-.847-1.342a3.183 3.183 0 00-4.377-.991zm-16.248 15.877l-.847-1.342 2.684-1.693 3.234 5.126c-1.913.419-3.97-.346-5.071-2.091zm14.472 2.126a4.774 4.774 0 01-6.565-1.486l-5.079-8.052 8.052-5.079 5.079 8.052a4.773 4.773 0 01-1.487 6.565zm4.315-13.977c1.1 1.745.905 3.932-.297 5.478l-3.233-5.127 2.684-1.693.846 1.342z" fill="#000" opacity=".2"/><path d="M343.325 242.959a.674.674 0 00.674-.674v-1.303c0-1.317-1.006-2.389-2.242-2.389h-1.091v-1.381c0-.966-.786-1.752-1.752-1.752h-5.424c-.966 0-1.752.786-1.752 1.752v3.596c-4.845-.565-10.876-.566-15.729 0v-3.596c0-.966-.786-1.752-1.752-1.752h-.428c3.694-2.249 7.825-5.299 11.045-8.27l2.115 2.908c.57.782 1.668.953 2.448.386l4.386-3.19a1.754 1.754 0 00.386-2.448l-.812-1.116.882-.642c1-.727 1.183-2.185.408-3.251l-3.657-5.028c-.775-1.065-2.219-1.34-3.219-.613l-.882.641-.812-1.116a1.753 1.753 0 00-2.447-.387l-4.387 3.191a1.754 1.754 0 00-.386 2.447l2.115 2.908c-4.252 2.393-9.128 5.94-12.72 9.252l-1.556-2.139a2.706 2.706 0 00-3.775-.595l-2.849 2.071a2.707 2.707 0 00-.596 3.776l.253.348-.882.641c-1.02.742-1.167 2.207-.408 3.251l3.658 5.028c.4.55.986.9 1.612.993v2.694c0 1.317 1.006 2.389 2.242 2.389h1.091v1.38c0 .966.786 1.752 1.752 1.752h5.423c.966 0 1.752-.786 1.752-1.752v-3.595c1.915.223 4.068.363 6.279.408h.014a.673.673 0 00.013-1.348 65.028 65.028 0 01-6.306-.417v-3.853c4.767-.571 10.864-.583 15.729 0v3.853c-1.91.229-4.076.372-6.305.417a.675.675 0 00.013 1.348h.014a66.97 66.97 0 006.278-.408v3.595c0 .966.786 1.752 1.752 1.752h5.424c.966 0 1.752-.786 1.752-1.752v-1.38h1.091c1.236 0 2.242-1.072 2.242-2.389v-1.77a.674.674 0 00-1.348 0v1.77c0 .564-.409 1.041-.894 1.041h-1.091v-8.3h1.091c.485 0 .894.477.894 1.041v1.303c0 .372.302.674.674.674zm-14.721-27.673c.392-.285 1.004-.141 1.336.316l3.657 5.028c.332.456.281 1.083-.111 1.368l-.882.642-4.882-6.713.882-.641zm-8.617 2.894a.41.41 0 01.089-.565l4.386-3.191a.41.41 0 01.565.09l6.884 9.464 1.208 1.661a.41.41 0 01-.089.565l-4.386 3.19a.408.408 0 01-.565-.089l-8.092-11.125zm1.823 4.797l2.267 3.116c-3.506 3.254-8.423 6.851-12.721 9.252l-2.266-3.116c3.496-3.245 8.417-6.848 12.72-9.252zm-18.061 18.005v2.139a1.142 1.142 0 01-.522-.401l-3.658-5.028c-.347-.477-.269-1.091.111-1.368l.882-.641 3.303 4.541a2.57 2.57 0 00-.116.758zm3.333 7.259h-1.091c-.485 0-.894-.477-.894-1.041v-6.218c0-.236.077-.49.231-.689a.844.844 0 01.663-.353h1.09v8.301h.001zm0-11.029v1.381h-1.091a2.197 2.197 0 00-.191.009 2.154 2.154 0 00-1.123.446l-4.071-5.596a1.358 1.358 0 01.299-1.893l2.848-2.072a1.361 1.361 0 011.893.299l4.127 5.674h-.94c-.965 0-1.751.786-1.751 1.752zm7.58 13.757a.411.411 0 01-.405.405h-5.423a.41.41 0 01-.405-.405v-13.757a.41.41 0 01.405-.404h5.423a.41.41 0 01.405.404v13.757zm24.657 0a.411.411 0 01-.405.405h-5.423a.41.41 0 01-.405-.405v-13.757a.41.41 0 01.405-.404h5.423a.41.41 0 01.405.404v13.757zm3.427-226.642l-.254-.11c-3.559-1.49-7.594-.842-10.527 1.59a8.654 8.654 0 00-2.988-2.103 8.661 8.661 0 00-5.911-.281c.498-1.265.858-2.583 1.163-3.759.261-1.006.516-1.981.828-2.751l3.691 1.547a2.36 2.36 0 001.817.007l4.143-1.697a2.367 2.367 0 001.313-3.012 2.368 2.368 0 00.666-3.286l-1.277-1.924a5.619 5.619 0 00-2.518-2.081 8.657 8.657 0 00-6.67-.027c-3.968 1.625-7.51 3.906-10.53 6.778-3.638 3.46-5.892 6.192-6.7 8.12-.463 1.105-.935 1.963-1.402 2.55-1 1.253-1 3.036-.002 4.335a37.851 37.851 0 0015.368 11.837l1.056.442a37.724 37.724 0 0011.771 2.829l.583.043a5.53 5.53 0 005.524-3.383l3.568-8.517c1.152-2.749-.065-5.955-2.712-7.147zm-2.316 15.052a3.952 3.952 0 01-3.947 2.416l-.582-.043a36.15 36.15 0 01-11.277-2.71l-1.056-.442a36.271 36.271 0 01-14.725-11.34c-.554-.722-.56-1.703-.016-2.386.559-.7 1.105-1.684 1.625-2.924.712-1.7 2.901-4.323 6.331-7.585 2.876-2.737 6.254-4.91 10.039-6.46a7.084 7.084 0 015.458.022 4.04 4.04 0 011.811 1.496l1.277 1.924a.787.787 0 01.097.67.786.786 0 01-.456.5l-3.308 1.355a.887.887 0 11-.673-1.642l.952-.39a.79.79 0 10-.6-1.465l-.952.39a2.446 2.446 0 00-1.466 1.71 2.446 2.446 0 00.53 2.187 2.47 2.47 0 002.809.675l2.265-.928a.781.781 0 01-.458.896l-4.143 1.697a.797.797 0 01-.606-.002l-3.408-1.429c.077-.056.154-.116.239-.15a.791.791 0 00-.6-1.465c-1.694.694-2.25 2.834-2.893 5.31-.334 1.287-.679 2.617-1.207 3.876-1.259 3.007-3.803 2.694-3.911 2.679a.79.79 0 00-.233 1.565c.965.148 2.749-.09 4.19-1.51.015-.009.034-.007.049-.017a7.102 7.102 0 016.781-.695 7.08 7.08 0 013.827 3.84.79.79 0 101.462-.605 8.847 8.847 0 00-.718-1.347c2.485-2.082 5.917-2.642 8.943-1.375l.215.093c1.872.844 2.726 3.128 1.903 5.092l-3.568 8.517zM42.126 18.327l-2.113-2.114 2.113-2.113a.996.996 0 000-1.409l-2.818-2.817a.997.997 0 00-1.408 0l-2.114 2.113-2.113-2.113a2.992 2.992 0 00-4.226 0l-.825.824a2.989 2.989 0 00-3.402.585l-1.409 1.409a.996.996 0 000 1.408l4.931 4.931-9.71 9.712-4.932-4.931a.997.997 0 00-1.409 0l-1.408 1.408a2.993 2.993 0 00-.583 3.401l-.826.826a2.992 2.992 0 000 4.226l2.113 2.113L9.874 37.9a.996.996 0 000 1.409l2.817 2.817a.996.996 0 001.41 0l2.112-2.113 2.114 2.113a2.992 2.992 0 004.226 0l.825-.824a2.989 2.989 0 003.402-.585l1.409-1.408a.996.996 0 000-1.41l-4.931-4.93 9.71-9.711 4.932 4.93a.996.996 0 001.409 0l1.408-1.408a2.993 2.993 0 00.584-3.401l.825-.826a2.992 2.992 0 000-4.226zm-3.522-6.34l1.409 1.409-1.409 1.409-1.409-1.409 1.41-1.409zM13.396 40.013l-1.409-1.409 1.409-1.409 1.409 1.409-1.41 1.409zm7.748.704a.997.997 0 01-1.408 0l-8.453-8.453a.997.997 0 010-1.408l.704-.705 9.862 9.862-.705.704zm4.931-2.113l-.704.704a.996.996 0 01-1.41 0l-11.27-11.27a.996.996 0 010-1.409l.705-.704 12.68 12.68zM21.85 31.56l-1.41-1.409 9.712-9.711 1.409 1.409-9.711 9.711zm17.46-6.19l-.705.705-7.748-7.748-4.931-4.93.704-.705a.996.996 0 011.409 0l11.27 11.27c.39.39.39 1.02 0 1.409zm1.408-4.226l-.704.705-9.862-9.862.705-.704a.997.997 0 011.408 0l8.453 8.452a.997.997 0 010 1.41zm15.031 16.434l-1.162.467-.468-1.162a.418.418 0 00-.543-.232l-1.55.624a.418.418 0 00-.231.543l.467 1.162-1.162.468c-.64.257-.952.988-.694 1.629l.182.453c-.385.34-.539.9-.334 1.408l.312.775a.416.416 0 00.543.231l2.711-1.09 2.148 5.34-2.711 1.091a.418.418 0 00-.232.543l.312.775c.203.505.7.805 1.215.784l.183.454c.257.64.989.953 1.63.695l1.161-.468.468 1.163c.086.213.33.317.543.231l1.55-.623a.418.418 0 00.231-.543l-.467-1.162 1.162-.468c.64-.258.952-.989.695-1.63l-.183-.453a1.25 1.25 0 00.334-1.407l-.311-.775a.418.418 0 00-.544-.232l-2.711 1.09-2.148-5.34 2.711-1.09a.418.418 0 00.232-.544l-.312-.774a1.255 1.255 0 00-1.215-.784l-.182-.454a1.254 1.254 0 00-1.63-.695zm-3.023.316l.774-.312.312.775-.775.312-.311-.775zm6.662 14.326l-.775.312-.312-.775.775-.312.312.775zm1.545-2.872a.418.418 0 01-.232.543l-4.648 1.87a.418.418 0 01-.543-.232l-.156-.387 5.423-2.181.156.387zm-.004-2.248l.155.387a.417.417 0 01-.231.543l-6.198 2.493a.417.417 0 01-.544-.232l-.155-.387 6.973-2.804zm-3.411.471l-.775.312-2.148-5.34.775-.312 2.148 5.34zm.484-7.749l.155.387-4.26 1.714-2.712 1.09-.156-.386a.417.417 0 01.231-.544l6.199-2.492a.417.417 0 01.543.231zm-1.398-1.238l.156.388-5.424 2.18-.156-.387a.418.418 0 01.232-.543l4.648-1.87a.418.418 0 01.544.232z" fill="#000" opacity=".4"/></svg>
